src/assets/images/illustrations/app-modal-alert-naming-dark.svg

<?xml version="1.0" encoding="UTF-8" standalone="no"?>
<svg
   width="551"
   height="357.21332"
   viewBox="0 0 551 357.21332"
   fill="none"
   version="1.1"
   id="svg3080"
   sodipodi:docname="app-modal-alert-naming-dark.svg"
   inkscape:version="1.2.2 (b0a8486541, 2022-12-01)"
   xmlns:inkscape="http://www.inkscape.org/namespaces/inkscape"
   xmlns:sodipodi="http://sodipodi.sourceforge.net/DTD/sodipodi-0.dtd"
   xmlns="http://www.w3.org/2000/svg"
   xmlns:svg="http://www.w3.org/2000/svg">
  <sodipodi:namedview
     id="namedview3082"
     pagecolor="#ffffff"
     bordercolor="#000000"
     borderopacity="0.25"
     inkscape:showpageshadow="2"
     inkscape:pageopacity="0.0"
     inkscape:pagecheckerboard="0"
     inkscape:deskcolor="#d1d1d1"
     showgrid="false"
     inkscape:zoom="0.35044643"
     inkscape:cx="-646.31847"
     inkscape:cy="432.30573"
     inkscape:window-width="1920"
     inkscape:window-height="1011"
     inkscape:window-x="0"
     inkscape:window-y="0"
     inkscape:window-maximized="1"
     inkscape:current-layer="svg3080" />
  <g
     clip-path="url(#clip0_7653_68594)"
     id="g3073"
     transform="matrix(5.1035532,0,0,5.1035532,-4.9241327,-0.0348876)">
    <path
       d="m 99.439,69.793 -3.0835,-9.3055 c 0,0 3.3917,3.3917 3.3917,6.1747 l -0.6088,-6.4356 c 0,0 1.7396,2.3481 1.5656,5.9137 -0.174,3.5657 -1.265,3.6527 -1.265,3.6527 z"
       fill="#e6e6e6"
       id="path3035" />
    <path
       d="M 33.2204,61.3198 30.2109,52.238 c 0,0 3.3102,3.3102 3.3102,6.0263 L 32.927,51.9834 c 0,0 1.6975,2.2917 1.5278,5.7716 -0.1698,3.48 -1.2344,3.5648 -1.2344,3.5648 z"
       fill="#e6e6e6"
       id="path3037" />
    <path
       d="m 80.1911,65.5108 c 0.0052,5.9742 -11.8439,4.1365 -26.3499,4.1491 -14.506,0.0125 -26.1759,1.8704 -26.181,-4.1038 -0.0052,-5.9742 11.8395,-7.2837 26.3456,-7.2962 14.506,-0.0126 26.1802,1.2767 26.1853,7.2509 z"
       fill="#e6e6e6"
       id="path3039" />
    <path
       d="M 108.929,69.6562 H 0.964844 v 0.2734 H 108.929 Z"
       fill="#3f3d56"
       id="path3041" />
    <path
       d="m 70.0256,57.4426 h -1.8965 l -0.9025,-7.3149 h 2.799 z"
       fill="#a0616a"
       id="path3043" />
    <path
       d="m 66.5648,56.9006 h 3.8682 v 2.3029 h -5.9603 v -0.2107 c 0,-0.5549 0.2204,-1.087 0.6127,-1.4794 0.3924,-0.3923 0.9246,-0.6128 1.4794,-0.6128 z"
       fill="#2f2e41"
       id="path3045" />
    <path
       d="M 83.965,68.239 H 82.0685 L 81.166,60.9241 h 2.799 z"
       fill="#a0616a"
       id="path3047" />
    <path
       d="m 80.5043,67.697 h 3.8682 v 2.3029 h -5.9604 v -0.2107 c 0,-0.5549 0.2204,-1.087 0.6128,-1.4794 0.3924,-0.3924 0.9245,-0.6128 1.4794,-0.6128 z"
       fill="#2f2e41"
       id="path3049" />
    <path
       d="m 92.7124,46.5078 c 0.1312,-0.159 0.2258,-0.3448 0.2774,-0.5444 0.0515,-0.1995 0.0586,-0.408 0.0209,-0.6106 -0.0377,-0.2026 -0.1194,-0.3945 -0.2393,-0.5621 -0.1199,-0.1677 -0.2752,-0.3069 -0.4547,-0.4081 l -4.4047,-17.9429 -2.8163,1.2117 5.239,17.3493 c -0.1499,0.3129 -0.1799,0.67 -0.0841,1.0035 0.0957,0.3335 0.3105,0.6204 0.6035,0.8062 0.2931,0.1857 0.6442,0.2575 0.9867,0.2018 0.3425,-0.0558 0.6526,-0.2352 0.8716,-0.5044 z"
       fill="#a0616a"
       id="path3051" />
    <path
       d="M 89.2776,10.2447 C 89.1204,10.0804 88.9291,9.95249 88.7171,9.8701 88.5052,9.7877 88.2777,9.75278 88.0508,9.7678 87.8239,9.78282 87.603,9.8474 87.4038,9.957 c -0.1993,0.1096 -0.372,0.2616 -0.5062,0.4452 l -6.8175,0.7827 1.0371,2.6296 6.2001,-1.1604 c 0.3234,0.2049 0.7107,0.2841 1.0886,0.2226 0.3779,-0.0616 0.7201,-0.2596 0.9617,-0.5566 0.2416,-0.297 0.3659,-0.6723 0.3494,-1.0548 -0.0166,-0.3825 -0.173,-0.7457 -0.4394,-1.0206 z"
       fill="#a0616a"
       id="path3053" />
    <path
       d="m 78.043,44.6469 2.9749,22.3272 3.7026,-0.7623 c 0,0 -0.5445,-16.2604 1.3069,-18.2206 1.8513,-1.9603 -2.3812,-5.3943 -2.3812,-5.3943 z"
       fill="#2f2e41"
       id="path3055" />
    <path
       d="m 79.2727,38.497 -1.3666,2.05 c 0,0 -10.5231,-4.3731 -10.5231,2.5966 0,6.9697 -0.6022,11.6996 -0.82,12.0263 -0.2178,0.3267 2.5198,1.1745 3.8266,0.9567 0,0 1.6122,-11.2363 1.5033,-11.8897 0,0 10.3227,5.0611 12.2829,4.6255 1.9603,-0.4356 2.4234,-1.9777 2.7501,-2.8489 0.3267,-0.8712 -0.1367,-7.7898 -0.1367,-7.7898 l -6.5339,-1.994 z"
       fill="#2f2e41"
       id="path3057" />
    <path
       d="m 79.4569,26.1892 -0.3895,-0.4675 c 0,0 -4.3628,-9.8163 -2.6489,-12.4651 1.714,-2.6488 9.193,-3.0384 9.4268,-2.8825 0.2337,0.1558 -0.5583,2.1787 -0.013,3.1136 0,0 -5.7937,1.2561 -6.1832,1.412 -0.3895,0.1558 3.002,5.9139 3.002,5.9139 l -0.3896,3.5058 z"
       fill="#cccccc"
       id="path3059" />
    <path
       d="m 87.0927,21.3588 c 0,0 -4.0511,0.4675 -4.2069,0.4675 -0.1559,0 -0.2338,-1.0128 -0.2338,-1.0128 l -3.5837,4.9081 c 0,0 -1.7656,14.2391 -1.2981,14.0054 0.4674,-0.2338 9.0888,1.1085 9.1667,0.4853 0.0779,-0.6233 -0.0779,-3.7395 0.1558,-3.8954 0.2338,-0.1558 4.0512,-9.8162 4.0512,-9.8162 0,0 -0.3896,-2.0256 -1.714,-2.7268 -1.3244,-0.7011 -2.3372,-2.4151 -2.3372,-2.4151 z"
       fill="#cccccc"
       id="path3061" />
    <path
       d="m 89.8962,25.1763 1.2465,1.3244 c 0,0 1.8521,15.2188 0.8393,15.6862 -1.0128,0.4675 -3.0066,0.41 -3.0066,0.41 l -1.9617,-7.2148 z"
       fill="#cccccc"
       id="path3063" />
    <path
       d="m 83.1992,20.3951 c 1.9804,0 3.5858,-1.6054 3.5858,-3.5858 0,-1.9805 -1.6054,-3.5859 -3.5858,-3.5859 -1.9805,0 -3.5859,1.6054 -3.5859,3.5859 0,1.9804 1.6054,3.5858 3.5859,3.5858 z"
       fill="#a0616a"
       id="path3065" />
    <path
       d="m 82.3577,17.3689 c -0.0484,-0.7441 -0.9871,-0.7696 -1.7327,-0.7766 -0.7456,-0.0071 -1.637,0.0195 -2.0589,-0.5953 -0.2788,-0.4063 -0.2255,-0.9703 0.0048,-1.4059 0.2303,-0.4356 0.6092,-0.7707 0.9819,-1.093 0.9623,-0.8321 1.9541,-1.6576 3.1094,-2.1902 1.1553,-0.5326 2.5092,-0.7479 3.7074,-0.3203 1.4719,0.5252 3.4616,3.2288 3.6334,4.7821 0.1718,1.5533 -0.449,3.1367 -1.4954,4.2975 -1.0464,1.1607 -3.4414,0.6924 -4.9486,1.1053 0.9163,-1.2969 0.3123,-3.6534 -1.1556,-4.259 z"
       fill="#2f2e41"
       id="path3067" />
    <path
       d="m 50.3993,63.7525 c 4.7543,0 8.6084,-3.854 8.6084,-8.6083 0,-4.7542 -3.8541,-8.6083 -8.6084,-8.6083 -4.7542,0 -8.6083,3.8541 -8.6083,8.6083 0,4.7543 3.8541,8.6083 8.6083,8.6083 z"
       fill="#fa4070"
       id="path3069" />
    <path
       d="m 44.65,45.9243 c -1.1931,10e-5 -2.3606,-0.3456 -3.3612,-0.9953 -1.0007,-0.6497 -1.7915,-1.5755 -2.2769,-2.6654 L 25.3521,11.5019 c -0.4525,-1.019 -0.6918,-2.11978 -0.7032,-3.23466 -0.0115,-1.11487 0.2052,-2.22031 0.6368,-3.24835 0.4315,-1.02805 1.0687,-1.95698 1.8724,-2.72971 0.8037,-0.77273 1.757,-1.372921 2.8012,-1.763688 1.0442,-0.390767 2.1573,-0.5638519 3.2708,-0.5086146 1.1136,0.0552373 2.2041,0.3376296 3.2045,0.8298176 1.0004,0.492185 1.8896,1.183775 2.6129,2.032255 0.7233,0.84847 1.2655,1.8359 1.5931,2.90161 L 50.532,37.9527 c 0.2831,0.9209 0.3464,1.8954 0.1847,2.8451 -0.1618,0.9498 -0.544,1.8484 -1.116,2.6236 -0.5721,0.7753 -1.3179,1.4055 -2.1777,1.8402 -0.8598,0.4347 -1.8096,0.6617 -2.773,0.6627 z"
       fill="#fa4070"
       id="path3071" />
  </g>
  <defs
     id="defs3078">
    <clipPath
       id="clip0_7653_68594">
      <rect
         width="107.964"
         height="70"
         fill="#ffffff"
         transform="translate(0.964844)"
         id="rect3075"
         x="0"
         y="0" />
    </clipPath>
  </defs>
</svg>

<svg width="109" height="70" viewBox="0 0 109 70" fill="none" xmlns="http://www.w3.org/2000/svg">
<g clip-path="url(#clip0_7653_68594)">
<path d="M99.439 69.793L96.3555 60.4875C96.3555 60.4875 99.7472 63.8792 99.7472 66.6622L99.1384 60.2266C99.1384 60.2266 100.878 62.5747 100.704 66.1403C100.53 69.706 99.439 69.793 99.439 69.793Z" fill="#E6E6E6"/>
<path d="M33.2204 61.3198L30.2109 52.238C30.2109 52.238 33.5211 55.5482 33.5211 58.2643L32.927 51.9834C32.927 51.9834 34.6245 54.2751 34.4548 57.755C34.285 61.235 33.2204 61.3198 33.2204 61.3198Z" fill="#E6E6E6"/>
<path d="M80.1911 65.5108C80.1963 71.485 68.3472 69.6473 53.8412 69.6599C39.3352 69.6724 27.6653 71.5303 27.6602 65.5561C27.655 59.5819 39.4997 58.2724 54.0058 58.2599C68.5118 58.2473 80.186 59.5366 80.1911 65.5108Z" fill="#E6E6E6"/>
<path d="M108.929 69.6562H0.964844V69.9296H108.929V69.6562Z" fill="#3F3D56"/>
<path d="M70.0256 57.4426H68.1291L67.2266 50.1277H70.0256V57.4426Z" fill="#A0616A"/>
<path d="M66.5648 56.9006H70.433V59.2035H64.4727V58.9928C64.4727 58.4379 64.6931 57.9058 65.0854 57.5134C65.4778 57.1211 66.01 56.9006 66.5648 56.9006Z" fill="#2F2E41"/>
<path d="M83.965 68.239H82.0685L81.166 60.9241H83.965V68.239Z" fill="#A0616A"/>
<path d="M80.5043 67.697H84.3725V69.9999H78.4121V69.7892C78.4121 69.2343 78.6325 68.7022 79.0249 68.3098C79.4173 67.9174 79.9494 67.697 80.5043 67.697Z" fill="#2F2E41"/>
<path d="M92.7124 46.5078C92.8436 46.3488 92.9382 46.163 92.9898 45.9634C93.0413 45.7639 93.0484 45.5554 93.0107 45.3528C92.973 45.1502 92.8913 44.9583 92.7714 44.7907C92.6515 44.623 92.4962 44.4838 92.3167 44.3826L87.912 26.4397L85.0957 27.6514L90.3347 45.0007C90.1848 45.3136 90.1548 45.6707 90.2506 46.0042C90.3463 46.3377 90.5611 46.6246 90.8541 46.8104C91.1472 46.9961 91.4983 47.0679 91.8408 47.0122C92.1833 46.9564 92.4934 46.777 92.7124 46.5078Z" fill="#A0616A"/>
<path d="M89.2776 10.2447C89.1204 10.0804 88.9291 9.95249 88.7171 9.8701C88.5052 9.7877 88.2777 9.75278 88.0508 9.7678C87.8239 9.78282 87.603 9.8474 87.4038 9.957C87.2045 10.0666 87.0318 10.2186 86.8976 10.4022L80.0801 11.1849L81.1172 13.8145L87.3173 12.6541C87.6407 12.859 88.028 12.9382 88.4059 12.8767C88.7838 12.8151 89.126 12.6171 89.3676 12.3201C89.6092 12.0231 89.7335 11.6478 89.717 11.2653C89.7004 10.8828 89.544 10.5196 89.2776 10.2447Z" fill="#A0616A"/>
<path d="M78.043 44.6469L81.0179 66.9741L84.7205 66.2118C84.7205 66.2118 84.176 49.9514 86.0274 47.9912C87.8787 46.0309 83.6462 42.5969 83.6462 42.5969L78.043 44.6469Z" fill="#2F2E41"/>
<path d="M79.2727 38.497L77.9061 40.547C77.9061 40.547 67.383 36.1739 67.383 43.1436C67.383 50.1133 66.7808 54.8432 66.563 55.1699C66.3452 55.4966 69.0828 56.3444 70.3896 56.1266C70.3896 56.1266 72.0018 44.8903 71.8929 44.2369C71.8929 44.2369 82.2156 49.298 84.1758 48.8624C86.1361 48.4268 86.5992 46.8847 86.9259 46.0135C87.2526 45.1423 86.7892 38.2237 86.7892 38.2237L80.2553 36.2297L79.2727 38.497Z" fill="#2F2E41"/>
<path d="M79.4569 26.1892L79.0674 25.7217C79.0674 25.7217 74.7046 15.9054 76.4185 13.2566C78.1325 10.6078 85.6115 10.2182 85.8453 10.3741C86.079 10.5299 85.287 12.5528 85.8323 13.4877C85.8323 13.4877 80.0386 14.7438 79.6491 14.8997C79.2596 15.0555 82.6511 20.8136 82.6511 20.8136L82.2615 24.3194L79.4569 26.1892Z" fill="#CCCCCC"/>
<path d="M87.0927 21.3588C87.0927 21.3588 83.0416 21.8263 82.8858 21.8263C82.7299 21.8263 82.652 20.8135 82.652 20.8135L79.0683 25.7216C79.0683 25.7216 77.3027 39.9607 77.7702 39.727C78.2376 39.4932 86.859 40.8355 86.9369 40.2123C87.0148 39.589 86.859 36.4728 87.0927 36.3169C87.3265 36.1611 91.1439 26.5007 91.1439 26.5007C91.1439 26.5007 90.7543 24.4751 89.4299 23.7739C88.1055 23.0728 87.0927 21.3588 87.0927 21.3588Z" fill="#CCCCCC"/>
<path d="M89.8962 25.1763L91.1427 26.5007C91.1427 26.5007 92.9948 41.7195 91.982 42.1869C90.9692 42.6544 88.9754 42.5969 88.9754 42.5969L87.0137 35.3821L89.8962 25.1763Z" fill="#CCCCCC"/>
<path d="M83.1992 20.3951C85.1796 20.3951 86.785 18.7897 86.785 16.8093C86.785 14.8288 85.1796 13.2234 83.1992 13.2234C81.2187 13.2234 79.6133 14.8288 79.6133 16.8093C79.6133 18.7897 81.2187 20.3951 83.1992 20.3951Z" fill="#A0616A"/>
<path d="M82.3577 17.3689C82.3093 16.6248 81.3706 16.5993 80.625 16.5923C79.8794 16.5852 78.988 16.6118 78.5661 15.997C78.2873 15.5907 78.3406 15.0267 78.5709 14.5911C78.8012 14.1555 79.1801 13.8204 79.5528 13.4981C80.5151 12.666 81.5069 11.8405 82.6622 11.3079C83.8175 10.7753 85.1714 10.56 86.3696 10.9876C87.8415 11.5128 89.8312 14.2164 90.003 15.7697C90.1748 17.323 89.554 18.9064 88.5076 20.0672C87.4612 21.2279 85.0662 20.7596 83.559 21.1725C84.4753 19.8756 83.8713 17.5191 82.4034 16.9135L82.3577 17.3689Z" fill="#2F2E41"/>
<path d="M50.3993 63.7525C55.1536 63.7525 59.0077 59.8985 59.0077 55.1442C59.0077 50.39 55.1536 46.5359 50.3993 46.5359C45.6451 46.5359 41.791 50.39 41.791 55.1442C41.791 59.8985 45.6451 63.7525 50.3993 63.7525Z" fill="#FA4070"/>
<path d="M44.65 45.9243C43.4569 45.9244 42.2894 45.5787 41.2888 44.929C40.2881 44.2793 39.4973 43.3535 39.0119 42.2636L25.3521 11.5019C24.8996 10.4829 24.6603 9.38212 24.6489 8.26724C24.6374 7.15237 24.8541 6.04693 25.2857 5.01889C25.7172 3.99084 26.3544 3.06191 27.1581 2.28918C27.9618 1.51645 28.9151 0.916259 29.9593 0.525492C31.0035 0.134725 32.1166 -0.0383599 33.2301 0.0168774C34.3437 0.0721147 35.4342 0.354507 36.4346 0.846695C37.435 1.33888 38.3242 2.03047 39.0475 2.87895C39.7708 3.72742 40.313 4.71485 40.6406 5.78056L50.532 37.9527C50.8151 38.8736 50.8784 39.8481 50.7167 40.7978C50.5549 41.7476 50.1727 42.6462 49.6007 43.4214C49.0286 44.1967 48.2828 44.8269 47.423 45.2616C46.5632 45.6963 45.6134 45.9233 44.65 45.9243Z" fill="#FA4070"/>
</g>
<defs>
<clipPath id="clip0_7653_68594">
<rect width="107.964" height="70" fill="white" transform="translate(0.964844)"/>
</clipPath>
</defs>
</svg>
